X:116
T:Reel 116
M:4/4
K:Cmaj
L:1/8
GF|E>C (3CCC ECGF|E>C (3CB,C E2GF||ECCE CB,CDB,D|G,>D (3B,A,G, DG,GF:||2EGCB, CEGc|AFDB, C2C2| (3EDC GC ACGC| (3EDC GC B,CDF| (3EDC GC ACGC|FDB,D G,CCF| (3EDC GC ACGC| (3EDC GC B,CDF|EGAB cdcA|GFED CFED|
